Numix/16/status/indicator-keyboard-En-3.svg

<?xml version="1.0" encoding="UTF-8" standalone="no"?>
<svg
   xmlns:dc="http://purl.org/dc/elements/1.1/"
   xmlns:cc="http://creativecommons.org/ns#"
   xmlns:rdf="http://www.w3.org/1999/02/22-rdf-syntax-ns#"
   xmlns:svg="http://www.w3.org/2000/svg"
   xmlns="http://www.w3.org/2000/svg"
   xmlns:sodipodi="http://sodipodi.sourceforge.net/DTD/sodipodi-0.dtd"
   xmlns:inkscape="http://www.inkscape.org/namespaces/inkscape"
   viewBox="0 0 16 16"
   id="svg2"
   version="1.1"
   inkscape:version="0.91 r13725"
   sodipodi:docname="indicator-keyboard-En-3.svg">
  <metadata
     id="metadata14">
    <rdf:RDF>
      <cc:Work
         rdf:about="">
        <dc:format>image/svg+xml</dc:format>
        <dc:type
           rdf:resource="http://purl.org/dc/dcmitype/StillImage" />
      </cc:Work>
    </rdf:RDF>
  </metadata>
  <defs
     id="defs12" />
  <sodipodi:namedview
     pagecolor="#ffffff"
     bordercolor="#666666"
     borderopacity="1"
     objecttolerance="10"
     gridtolerance="10"
     guidetolerance="10"
     inkscape:pageopacity="0"
     inkscape:pageshadow="2"
     inkscape:window-width="640"
     inkscape:window-height="480"
     id="namedview10"
     showgrid="false"
     inkscape:zoom="14.75"
     inkscape:cx="8"
     inkscape:cy="8"
     inkscape:window-x="65"
     inkscape:window-y="24"
     inkscape:window-maximized="0"
     inkscape:current-layer="svg2" />
  <path
     style="fill:#ececec;fill-opacity:1"
     d="M 1.5996094 0 C 0.71320937 2.9605947e-16 0 0.71320937 0 1.5996094 L 0 14.400391 C 2.9605947e-16 15.286791 0.71320937 16 1.5996094 16 L 14.400391 16 C 15.286791 16 16 15.286791 16 14.400391 L 16 1.5996094 C 16 0.71320937 15.286791 0 14.400391 0 L 1.5996094 0 z M 1.9414062 4.859375 L 5.5410156 4.859375 L 5.5410156 5.390625 L 2.5527344 5.390625 L 2.5527344 7.5585938 L 5.2167969 7.5585938 L 5.2167969 8.0800781 L 2.5527344 8.0800781 L 2.5527344 10.564453 L 5.7753906 10.564453 L 5.7753906 11.095703 L 1.9414062 11.095703 L 1.9414062 4.859375 z M 8.6796875 6.3535156 C 9.0336875 6.3535156 9.3285 6.4038594 9.5625 6.5058594 C 9.8025 6.6078594 9.9909061 6.7552656 10.128906 6.9472656 C 10.272906 7.1332656 10.375547 7.3570938 10.435547 7.6210938 C 10.495547 7.8850938 10.525391 8.1761406 10.525391 8.4941406 L 10.525391 11.095703 L 9.9394531 11.095703 L 9.9394531 8.6835938 C 9.9394531 8.3535937 9.9151875 8.0756563 9.8671875 7.8476562 C 9.8251875 7.6196562 9.7505781 7.4330625 9.6425781 7.2890625 C 9.5405781 7.1450625 9.4025156 7.0424219 9.2285156 6.9824219 C 9.0605156 6.9164219 8.8478438 6.8847656 8.5898438 6.8847656 C 8.3138437 6.8847656 8.0731406 6.8996875 7.8691406 6.9296875 C 7.6711406 6.9596875 7.5424219 6.9857656 7.4824219 7.0097656 L 7.4824219 11.095703 L 6.8984375 11.095703 L 6.8984375 6.6054688 C 7.0724375 6.5574688 7.3056094 6.5033594 7.5996094 6.4433594 C 7.8936094 6.3833594 8.2536875 6.3535156 8.6796875 6.3535156 z M 12.689453 8.7539062 C 12.892253 8.7539062 13.066638 8.7793781 13.210938 8.8300781 C 13.359137 8.8807781 13.480625 8.953275 13.578125 9.046875 C 13.675625 9.136575 13.748122 9.2463 13.794922 9.375 C 13.841722 9.4997999 13.865234 9.6350031 13.865234 9.7832031 C 13.865234 10.021103 13.800575 10.217041 13.671875 10.369141 C 13.547075 10.517341 13.3864 10.625106 13.1875 10.691406 C 13.2967 10.718706 13.400553 10.759859 13.501953 10.818359 C 13.607253 10.872959 13.701303 10.945456 13.783203 11.035156 C 13.865103 11.120956 13.931722 11.226762 13.982422 11.351562 C 14.033122 11.476362 14.058594 11.623316 14.058594 11.791016 C 14.058594 11.962616 14.027244 12.119372 13.964844 12.263672 C 13.906344 12.407972 13.816213 12.535331 13.695312 12.644531 C 13.578313 12.749831 13.429394 12.834084 13.246094 12.896484 C 13.062794 12.954984 12.847262 12.984375 12.601562 12.984375 C 12.472862 12.984375 12.353341 12.974578 12.244141 12.955078 C 12.138841 12.939478 12.046744 12.919884 11.964844 12.896484 C 11.882944 12.873084 11.812406 12.849572 11.753906 12.826172 C 11.699306 12.802772 11.658159 12.783178 11.630859 12.767578 L 11.730469 12.427734 C 11.753869 12.443334 11.793056 12.462928 11.847656 12.486328 C 11.902256 12.509728 11.966916 12.533241 12.041016 12.556641 C 12.119016 12.576141 12.203275 12.593775 12.296875 12.609375 C 12.394375 12.624975 12.500181 12.632813 12.613281 12.632812 C 12.983781 12.632812 13.250256 12.556397 13.410156 12.404297 C 13.570056 12.248297 13.648438 12.040597 13.648438 11.779297 C 13.648438 11.607697 13.615128 11.464663 13.548828 11.351562 C 13.486428 11.238462 13.400209 11.148331 13.287109 11.082031 C 13.177909 11.011831 13.048591 10.962847 12.900391 10.935547 C 12.756091 10.904347 12.6013 10.888672 12.4375 10.888672 L 12.378906 10.888672 L 12.378906 10.574219 L 12.513672 10.574219 C 12.618972 10.574219 12.726738 10.564422 12.835938 10.544922 C 12.949038 10.521522 13.050925 10.480375 13.140625 10.421875 C 13.234225 10.363375 13.310641 10.285 13.369141 10.1875 C 13.431541 10.09 13.460937 9.9646001 13.460938 9.8125 C 13.460938 9.6838 13.441338 9.5760281 13.398438 9.4863281 C 13.355538 9.3927281 13.296756 9.3182719 13.222656 9.2636719 C 13.152456 9.2090719 13.068203 9.1698844 12.970703 9.1464844 C 12.877103 9.1191844 12.777175 9.1054687 12.671875 9.1054688 C 12.461275 9.1054688 12.298641 9.1348594 12.181641 9.1933594 C 12.064641 9.2518594 11.968631 9.3067219 11.894531 9.3574219 L 11.730469 9.0585938 C 11.769469 9.0312937 11.818453 8.9999438 11.876953 8.9648438 C 11.939353 8.9297438 12.01185 8.8964344 12.09375 8.8652344 C 12.17565 8.8340344 12.263828 8.8085625 12.361328 8.7890625 C 12.462728 8.7656625 12.572453 8.7539062 12.689453 8.7539062 z "
     id="path4" />
</svg>

<svg xmlns="http://www.w3.org/2000/svg" viewBox="0 0 16 16">
 <path d="m 1.6 0 c -0.886 0 -1.6 0.713 -1.6 1.6 l 0 12.801 c 0 0.886 0.713 1.6 1.6 1.6 l 12.801 0 c 0.886 0 1.6 -0.713 1.6 -1.6 l 0 -12.801 c 0 -0.886 -0.713 -1.6 -1.6 -1.6 l -12.801 0 z m 0.342 4.859 l 3.6 0 l 0 0.531 l -2.988 0 l 0 2.168 l 2.664 0 l 0 0.521 l -2.664 0 l 0 2.484 l 3.223 0 l 0 0.531 l -3.834 0 l 0 -6.236 z m 6.738 1.494 c 0.354 0 0.649 0.05 0.883 0.152 c 0.24 0.102 0.428 0.249 0.566 0.441 c 0.144 0.186 0.247 0.41 0.307 0.674 c 0.06 0.264 0.09 0.555 0.09 0.873 l 0 2.602 l -0.586 0 l 0 -2.412 c 0 -0.33 -0.024 -0.608 -0.072 -0.836 c -0.042 -0.228 -0.117 -0.415 -0.225 -0.559 c -0.102 -0.144 -0.24 -0.247 -0.414 -0.307 c -0.168 -0.066 -0.381 -0.098 -0.639 -0.098 c -0.276 0 -0.517 0.015 -0.721 0.045 c -0.198 0.03 -0.327 0.056 -0.387 0.08 l 0 4.086 l -0.584 0 l 0 -4.49 c 0.174 -0.048 0.407 -0.102 0.701 -0.162 c 0.294 -0.06 0.654 -0.09 1.08 -0.09 z m 4.01 2.4 c 0.203 0 0.377 0.025 0.521 0.076 c 0.148 0.051 0.27 0.123 0.367 0.217 c 0.098 0.09 0.17 0.199 0.217 0.328 c 0.047 0.125 0.07 0.26 0.07 0.408 c 0 0.238 -0.065 0.434 -0.193 0.586 c -0.125 0.148 -0.285 0.256 -0.484 0.322 c 0.109 0.027 0.213 0.068 0.314 0.127 c 0.105 0.055 0.199 0.127 0.281 0.217 c 0.082 0.086 0.149 0.192 0.199 0.316 c 0.051 0.125 0.076 0.272 0.076 0.439 c 0 0.172 -0.031 0.328 -0.094 0.473 c -0.058 0.144 -0.149 0.272 -0.27 0.381 c -0.117 0.105 -0.266 0.19 -0.449 0.252 c -0.183 0.059 -0.399 0.088 -0.645 0.088 c -0.129 0 -0.248 -0.01 -0.357 -0.029 c -0.105 -0.016 -0.197 -0.035 -0.279 -0.059 c -0.082 -0.023 -0.152 -0.047 -0.211 -0.07 c -0.055 -0.023 -0.096 -0.043 -0.123 -0.059 l 0.1 -0.34 c 0.023 0.016 0.063 0.035 0.117 0.059 c 0.055 0.023 0.119 0.047 0.193 0.07 c 0.078 0.019 0.162 0.037 0.256 0.053 c 0.098 0.016 0.203 0.023 0.316 0.023 c 0.37 0 0.637 -0.076 0.797 -0.229 c 0.16 -0.156 0.238 -0.364 0.238 -0.625 c 0 -0.172 -0.033 -0.315 -0.1 -0.428 c -0.062 -0.113 -0.149 -0.203 -0.262 -0.27 c -0.109 -0.07 -0.239 -0.119 -0.387 -0.146 c -0.144 -0.031 -0.299 -0.047 -0.463 -0.047 l -0.059 0 l 0 -0.314 l 0.135 0 c 0.105 0 0.213 -0.01 0.322 -0.029 c 0.113 -0.023 0.215 -0.065 0.305 -0.123 c 0.094 -0.059 0.17 -0.137 0.229 -0.234 c 0.062 -0.098 0.092 -0.223 0.092 -0.375 c 0 -0.129 -0.02 -0.236 -0.063 -0.326 c -0.043 -0.094 -0.102 -0.168 -0.176 -0.223 c -0.07 -0.055 -0.154 -0.094 -0.252 -0.117 c -0.094 -0.027 -0.194 -0.041 -0.299 -0.041 c -0.211 0 -0.373 0.029 -0.49 0.088 c -0.117 0.059 -0.213 0.113 -0.287 0.164 l -0.164 -0.299 c 0.039 -0.027 0.088 -0.059 0.146 -0.094 c 0.062 -0.035 0.135 -0.068 0.217 -0.1 c 0.082 -0.031 0.17 -0.057 0.268 -0.076 c 0.101 -0.023 0.211 -0.035 0.328 -0.035 z" style="fill:#ececec;fill-opacity:1"/>
</svg>
